X:1
T:Title
%%score { ( 1 3 ) | ( 2 4 ) }
L:1/8
M:4/4
K:G
V:1 treble nm="Grand Piano"
V:3 treble 
V:2 bass 
V:4 bass 
V:1
 z4 z2[Q:1/4=124] D2 | G6 G2 | B6 B2 | d2 e2 d2 G2 | B6 B2 | A2 A2 [GA]2 [GA]2 | %6
 [FA]3 [FB] [FA]2 [FA]2 | B2 e2 ^c2 A2 | [Fd]6 d2 | e3 d c2 B2 | A2 G2 F2 E2 | %11
 D2 [=Fd]2 [^Fd]2 [=Fd]2 |[M:7/8] [Fd]-[Fd]-[Fd]- [Fd]- [Fd]3 |[M:1/4] D2 |[M:4/4] G6 A2 | %15
 G2 F2 E2 F2 | G4 [FA]4 | B4 c4 | d6 e2 | d2 e2 d2 B2 | A4 B4 | [CFA]2 D2 E2 F2 | G6 A2 | %23
 G2 F2 E2 F2 | G4 [FA]4 | [GB]4 [G^c]4 | d2 d2 ^c2 B2 | F4 ^c4 | [B,DB]2 BB B2 B2 | %29
[M:3/4] [DFcd]6 |[M:1/4] D2 |[M:4/4] G6 A2 | G2 F2 E2 F2 | G4 [FA]4 | B4 c4 | d6 e2 | d2 e2 d2 B2 | %37
 A4 B4 | [CFA]2 D2 E2 F2 | G6 A2 | G2 F2 E2 F2 | G4 [FA]4 | [GB]4 [Ge]4 | [Gd]2 dd d2 d2 | %44
 d2 B2 A2 G2 | d4 [Fd]4 |[M:3/4] [B,DG]6 |] %47
V:2
 z4 z2 D,2 | [G,B,D]6[K:treble] [G,B,D]2 | [G,DG]6 [G,DG]2 | [G,B,G]2 [G,CG]2 [G,B,G]2 [G,B,D]2 | %4
 [G,DG]6 [G,DG]2 | [F,D]2 [F,D]2 [E,^C]2 [E,C]2 | [D,D]3 [D,D] [D,D]2 [D,D]2 | %7
 [G,DG]2 [G,B,G]2 [A,EG]2 [A,^CG]2 | [D,D]6 [D,D]2 | [E,E]3 [D,D] [C,C]2 [B,,B,]2 | %10
 [A,,A,]2 [G,,G,]2 [F,,F,]2 [E,,E,]2 | [D,,D,]2 [D,^G,]2 [D,G,]2 [D,G,]2 |[M:7/8] A,- A,3 z z2 | %13
[M:1/4] D,2 |[M:4/4] [G,B,D]6 [G,B,D]2 | [D,A,C]2 [D,A,C]2 [D,A,C]2 [D,A,C]2 | [G,B,]4 [D,D]4 | %17
 [G,DG]4 [A,DG]4 | [B,DG]6 [CG]2 | [B,DG]2 [CG]2 [B,DG]2 [G,DG]2 | [A,^CG]4 [A,CG]4 | %21
 D,2 D,2 E,2 F,2 | [G,B,D]6 [G,B,D]2 | [D,A,C]2 [D,A,C]2 [D,A,C]2 [D,A,C]2 | [G,B,]4 [D,D]4 | %25
 [G,D]4 [E,E]4 | [F,B,F]2 D2 ^C2 B,2 | F,4 [F,A,E]4 | B,,2 B,B, B,2 B,2 |[M:3/4] [D,,D,]6 | %30
[M:1/4] D,2 |[M:4/4] [G,B,D]6 [G,B,D]2 | [D,A,C]2 [D,A,C]2 [D,A,C]2 [D,A,C]2 | [G,B,]4 [D,D]4 | %34
 [G,DG]4 [A,DG]4 | [B,DG]6 [CG]2 | [B,DG]2 [CG]2 [B,DG]2 [G,DG]2 | [A,^CG]4 [A,CG]4 | %38
 D,2 D,2 E,2 F,2 | [G,B,D]6 [G,B,D]2 | [D,A,C]2 [D,A,C]2 [D,A,C]2 [D,A,C]2 | [G,B,]4 [D,D]4 | %42
 [G,D]4 [C,C]4 | [D,B,]2[K:treble] DD D2 D2 | D2[K:bass] B,2 A,2 G,2 | D4 [D,C]4 | %46
[M:3/4] [G,,G,]6 |] %47
V:3
 x8 | x8 | x8 | x8 | x8 | x8 | x8 | x8 | x8 | x8 | x8 | x8 |[M:7/8] z z z2 C3 |[M:1/4] x2 | %14
[M:4/4] x8 | x8 | x8 | x8 | x8 | x8 | x8 | x8 | x8 | x8 | x8 | x8 | x8 | x8 | x8 |[M:3/4] x6 | %30
[M:1/4] x2 |[M:4/4] x8 | x8 | x8 | x8 | x8 | x8 | x8 | x8 | x8 | x8 | x8 | x8 | x8 | x8 | x8 | %46
[M:3/4] x6 |] %47
V:4
 x8 | x6[K:treble] x2 | x8 | x8 | x8 | x8 | x8 | x8 | x8 | x8 | x8 | x8 | %12
[M:7/8] D,-D,-D,- D,- D,2- D,/ z/ |[M:1/4] x2 |[M:4/4] x8 | x8 | x8 | x8 | x8 | x8 | x8 | x8 | x8 | %23
 x8 | x8 | x8 | x8 | x8 | x8 |[M:3/4] x6 |[M:1/4] x2 |[M:4/4] x8 | x8 | x8 | x8 | x8 | x8 | x8 | %38
 x8 | x8 | x8 | x8 | x8 | x2[K:treble] x6 | x2[K:bass] x6 | x8 |[M:3/4] x6 |] %47

